X:11488
T:Mueira (MG 27)
R:Mueira
C:Versin de Remis Ovalle
S:Msica Tradicional Asturiana, (C) Tello & Tito. Asturies, 2001.
S:http://pagina.de/MusTradAst <telloytito@asturies.org>
A:Asturies
Z:Mtodu de Gaita 27
E:Nivel 3
M:6/8
L:1/8
Q:3/8=88
K:C
EF
|GcG ~GEF|AcA ~ADE|FGF FEF|~A2 G {F}~ECE|
|GcG ~GEF|AcA ~ADE|FGF ~DB,D|{B,}C3 CDE|
|: FGF {CF}EDE|FGF {CF}EDE|FGF ~DB,D|~E2 C {CF}EDE|
|FGF {CF}EDE|FGF {F}EDE|FAF ~DB,D|C3 CDE :|
|FGF ~DB,D|~E2 C {F}EDE|FAF ~DB,D|C3 cBA|
|GAE F2 ~A|GEC E2 G|F~DB, CDE|~A2 G cBA|
|GAE F2 ~A|GEC E2 G|F~DB, DGE|{B,}C3 cBA|
|GAE F2 A|GEC E2 G|FGF ~DB,D|~A2 G cBA|
|GAE F2 ~A|GEC E2 G|F~DB, DGE|{B,}C3 CDE|
|: FGF ~DB,D|~E2 C {F}EDE|FAF ~DB,D|[1 C3 CDE :|[2 C3 {F}~ECE|
|: {CF}~ECE {CF}~EDE|FGF ~DB,D|{CF}~DB,D {CF}~DB,D|{CF}~EDC {F}~ECE|
|ECE {CF}~EDE|FAF {E}DB,D|{CF}~DB,D D~ED|[1 C3 {F}~ECE :|[2 C3 CDE|
|FGF ~DB,D|~EDC {F}~EDE|FAF DB,D|C2 G CEF|
|GcG ~GEF|AcA ~ADE|FGF FED|~A2 G {F}~ECE|
|GcG ~GEF|AcA ~ADE|FAF ~DB,D|{B,}C3 {G}CEF|
|: GcG GAB|c2 c BAB|c~dc BAB|[1 c2 G ~AEF :|[2 c2 G cBA|
|GAE F2 ~A|GEC E2 G|F~DB, CDE|~A2 G cBA|
|GAE F2 ~A|GEC E2 G|F~DB, DGE|{B,}C3 cBA|
|GAE F2 ~A|GEC E2 G|FGF ~DB,D|~A2 G cBA|
|GAE F2 ~A|GEC E2 G|F~DB, DGE|{B,}C3 CDE|
|: FGF {CF}EDE|FGF {CF}EDE|FGF ~DB,D|~E2 C {F}EDE|
|FAF {CF}EDE|FAF {CF}EDE|FAF ~DB,D|C3 CDE :|
|FGF ~DB,D|~E2 C {F}EDE|FAF DB,D|C3 ~EDC|
|B,2 D DcG|~E2 C CDE|FGF ~DB,D|~E2 C ~EDC|
|B,2 D DcG|~E2 C {F}EDE|FAF ~DB,D|C3 CDE|
|FGF DB,D|~E2 C {F}EDE|FAF DB,D|C3 {G}CEF|
|GcG ~GEF|AcA ~ADE|FGF FED|~A2 G ~ECE|
|GcG ~GEF|AcA ~ADE|FAF ~DB,D|{B,}C3 ~EDC|
|B,2 D DcG|~E2 C CDE|FGF ~DB,D|~E2 C ~EDC|
|B,2 D DcG|~E2 C {F}EDE|FAF ~DB,D|C2 G CEF|GAB cde|f6|
